svgs/sharp-light/file-slash.svg

<svg xmlns="http://www.w3.org/2000/svg" viewBox="0 0 640 512"><!--! Font Awesome Pro 6.6.0 by @fontawesome - https://fontawesome.com License - https://fontawesome.com/license (Commercial License) Copyright 2024 Fonticons, Inc. --><path d="M512 326l-32-25.3L480 192l-128 0-9.8 0L320 192l0-17.5 0-14.5 0-128L160 32l0 16.1L128 22.9 128 0l32 0L360 0 512 152l0 174zM352 160l122.7 0L352 37.3 352 160zM160 211.2L160 480l320 0 0-16.1 32 25.3 0 22.9-32 0-320 0-32 0 0-32 0-294 32 25.3zM19.9 .1L32.4 10 627.5 477.1l12.6 9.9-19.8 25.2-12.6-9.9L12.7 35.2 .1 25.3 19.9 .1z"/></svg>

<svg xmlns="http://www.w3.org/2000/svg" viewBox="0 0 640 512"><!--! Font Awesome Pro 6.4.2 by @fontawesome - https://fontawesome.com License - https://fontawesome.com/license (Commercial License) Copyright 2023 Fonticons, Inc. --><path d="M512 326l-32-25.3V192H352h-9.8H320V174.5 160 32H160V48.1L128 22.9V0h32H360L512 152V326zM352 160H474.7L352 37.3V160zM160 211.2V480H480V463.9l32 25.3V512H480 160 128V480 186l32 25.3zM19.9 .1L32.5 10 627.5 477.1l12.6 9.9-19.8 25.2-12.6-9.9L12.7 35.2 .1 25.3 19.9 .1z"/></svg>
